X:21
T:Raven's Cove
M:4/4
L:1/8
R:Reel
C:Gris Sanderson
Q:400
N:When we were recording the Waulk albums we occasionally 
N:had a break and took ourselves off to the beach. I named this 
N:reel after Raven's Cove, my favourite. The sea and rocks are 
N:always powerful  and inspiring- you get that sense of awe 
N:there that puts eveything else in perspective.This tune is on 
N:the Waulk album Um-Di-Um. 
K:Ador
A2AB (3cBA BG|ABAG EDEG|A3G3A2-|AEGA BAGB|
A2e2-e2ef|(3gfe fd edBG|D3ED3E|DEGA BAGB:|
|:e3a edAa|edAB cBAG|D3ED3E|1DEGA BAGB|
|e3a edAa|edAB cBAG|D3E3G2-|GEGA cBA2:|
|2DEGA BAGB|A2e2- e2ef|(3gfe fd edBG|D3ED3E|DEGA BAGB||
